setcps(153/120/2)


d1
$ spreadf [ply "<4 8 9>", chop 4, rev, hurry 2]
$ bite 8 "0 <4 3 12 4 7>"
$ s "[breaks165*2, feel*8]"
# up (choose [0,2, 3, -4, -5,-2])
# legato "<1..2>/2" # shape 0.39


d2
$ spreadf [ply "<4 8 9>", chop 4, rev, hurry 2]
$ bite 8 "0 <4 3 12 4 7>"
$ loopAt 4 $ splice 32 "0..31"
$ s "[ riffusion]" # n (irand 2)
 # up (choose [0,2, 3, -4, -5,-2])
|+ up "12" # speed "[1, 1.02]"
# gain 1.1  # shape 0.79
-- # legato "<1..2>/2" # shape 0.79
